X: 137
T:Three-part Valse
M:3/4
L:1/4
R:Valse
O:French, composer unknown to transcriber
Z:Steve Mansfield 12/3/00
K:G
GDB | G3 | GDB | A3 | cB>A | GF>E | F/G/FE | D3 |
GDB | G3 | GDB | A3| cB>A | GF>E |DEF |1 G3 :|2 G2F/G/ |
|: A/G/ A/c/ B/A/ | B/A/ B/d/ c/B/ | A/G/ A/c/ B/A/ | BGF/G/ | A/G/ A/c/ B/A/ |
B/A/ B/d/ c/B/ | A/G/ A/c/ B/A/ |1 G2F/G/ :|2 G2A |:B2c | d>ed |
A2B | c>dc | G2A | B>cB | A2G | A3 |
B2c | d>ed | A2B | c>dc | G2A | B>cB | A2F | G3 :|
<end>
<start>
